packages/dnb-eufemia/assets/icons/loan_out_medium.svg

<svg width="24" height="24" viewBox="0 0 24 24" fill="none" xmlns="http://www.w3.org/2000/svg">
<path d="M23.25 21C23.6642 21 24 20.6642 24 20.25C24 19.8358 23.6642 19.5 23.25 19.5V21ZM0.75 19.5C0.335786 19.5 0 19.8358 0 20.25C0 20.6642 0.335786 21 0.75 21V19.5ZM13.5 9.5C13.9142 9.5 14.25 9.16421 14.25 8.75C14.25 8.33579 13.9142 8 13.5 8V9.5ZM15 16C15 15.5858 14.6642 15.25 14.25 15.25C13.8358 15.25 13.5 15.5858 13.5 16H15ZM18 16C18 15.5858 17.6642 15.25 17.25 15.25C16.8358 15.25 16.5 15.5858 16.5 16H18ZM22.5 18C22.5 17.5858 22.1642 17.25 21.75 17.25C21.3358 17.25 21 17.5858 21 18H22.5ZM15.5 11.75C15.0858 11.75 14.75 12.0858 14.75 12.5C14.75 12.9142 15.0858 13.25 15.5 13.25V11.75ZM19.9697 14.4697C19.6768 14.7626 19.6768 15.2374 19.9697 15.5303C20.2626 15.8232 20.7374 15.8232 21.0303 15.5303L19.9697 14.4697ZM23 12.5L23.5303 13.0303C23.8232 12.7374 23.8232 12.2626 23.5303 11.9697L23 12.5ZM21.0303 9.46967C20.7374 9.17678 20.2626 9.17678 19.9697 9.46967C19.6768 9.76256 19.6768 10.2374 19.9697 10.5303L21.0303 9.46967ZM10.5 9.5H13.5V8H10.5V9.5ZM10.5 9.5V8C9.67157 8 9 8.67157 9 9.5H10.5ZM3 5.5H6V4H3V5.5ZM6 5.5H7.5C7.5 4.67157 6.82843 4 6 4V5.5ZM3 5.5V4C2.17157 4 1.5 4.67157 1.5 5.5H3ZM2.25 19.5H0.75V21H2.25V19.5ZM3 20.25V5.5H1.5V20.25H3ZM6.75 19.5H2.25V21H6.75V19.5ZM6 5.5V20.25H7.5V5.5H6ZM9.75 19.5H6.75V21H9.75V19.5ZM10.5 20.25V9.5H9V20.25H10.5ZM14.25 19.5H9.75V21H14.25V19.5ZM17.25 19.5H14.25V21H17.25V19.5ZM23.25 19.5H21.75V21H23.25V19.5ZM21.75 19.5H17.25V21H21.75V19.5ZM13.5 16V20.25H15V16H13.5ZM18 20.25V16H16.5V20.25H18ZM21 18V20.25H22.5V18H21ZM21.0303 15.5303L23.5303 13.0303L22.4697 11.9697L19.9697 14.4697L21.0303 15.5303ZM23.5303 11.9697L21.0303 9.46967L19.9697 10.5303L22.4697 13.0303L23.5303 11.9697ZM15.5 13.25H23V11.75H15.5V13.25Z" fill="black"/>
</svg>

<svg width="24" height="24" viewBox="0 0 24 24" fill="none" xmlns="http://www.w3.org/2000/svg"><path d="M23.25 21a.75.75 0 0 0 0-1.5V21ZM.75 19.5a.75.75 0 0 0 0 1.5v-1.5Zm12.75-10a.75.75 0 0 0 0-1.5v1.5ZM15 16a.75.75 0 0 0-1.5 0H15Zm3 0a.75.75 0 0 0-1.5 0H18Zm4.5 2a.75.75 0 0 0-1.5 0h1.5Zm-7-6.25a.75.75 0 0 0 0 1.5v-1.5Zm4.47 2.72a.75.75 0 1 0 1.06 1.06l-1.06-1.06ZM23 12.5l.53.53a.75.75 0 0 0 0-1.06l-.53.53Zm-1.97-3.03a.75.75 0 1 0-1.06 1.06l1.06-1.06ZM10.5 9.5h3V8h-3v1.5Zm0 0V8A1.5 1.5 0 0 0 9 9.5h1.5ZM3 5.5h3V4H3v1.5Zm3 0h1.5A1.5 1.5 0 0 0 6 4v1.5Zm-3 0V4a1.5 1.5 0 0 0-1.5 1.5H3Zm-.75 14H.75V21h1.5v-1.5Zm.75.75V5.5H1.5v14.75H3Zm3.75-.75h-4.5V21h4.5v-1.5ZM6 5.5v14.75h1.5V5.5H6Zm3.75 14h-3V21h3v-1.5Zm.75.75V9.5H9v10.75h1.5Zm3.75-.75h-4.5V21h4.5v-1.5Zm3 0h-3V21h3v-1.5Zm6 0h-1.5V21h1.5v-1.5Zm-1.5 0h-4.5V21h4.5v-1.5ZM13.5 16v4.25H15V16h-1.5Zm4.5 4.25V16h-1.5v4.25H18ZM21 18v2.25h1.5V18H21Zm.03-2.47 2.5-2.5-1.06-1.06-2.5 2.5 1.06 1.06Zm2.5-3.56-2.5-2.5-1.06 1.06 2.5 2.5 1.06-1.06Zm-8.03 1.28H23v-1.5h-7.5v1.5Z" fill="#000"/></svg>
